X:38
T:Real(?) Dance,The. RHu.038
S:R.Hughes MS,1823,Whitchurch,Shrops.
A:Whitchurch, Shropshire
Z:Neil Brookes 2006
M:2/4
L:1/8
Q:1/4=100
R:Country Dance
K:G
d|gb/g/ ac’/a/|f/d/e/f/ g/b/d’/b/|gb/g/ ac’/a/|b/d’/f/a/ g2::!
bd’/b/ c’a/c’/|b/a/g/f/ g/b/a/c’/|bd’/b/ c’a/c’/|b/d’/f/a/ g2:|

